polaris-icons/icons/new-icons/EyeDropperMinor.svg

<svg width="20" height="20" viewBox="0 0 20 20" fill="none" xmlns="http://www.w3.org/2000/svg">
<path fill-rule="evenodd" clip-rule="evenodd" d="M14.4194 9.11623L15.8211 7.71455C16.7974 6.73823 16.7974 5.15532 15.8211 4.17901C14.8448 3.2027 13.2619 3.2027 12.2856 4.17901L11.543 4.92155L11.5355 4.92901L10.8838 5.58068L9.82324 4.52008C9.53034 4.22718 9.05547 4.22718 8.76258 4.52008C8.46968 4.81297 8.46968 5.28784 8.76258 5.58074L9.8232 6.64136L4.17895 12.2856C3.20264 13.2619 3.20264 14.8448 4.17895 15.8211C5.15526 16.7975 6.73817 16.7975 7.71448 15.8211L13.3587 10.1769L14.4194 11.2376C14.7123 11.5305 15.1872 11.5305 15.4801 11.2376C15.773 10.9447 15.773 10.4698 15.4801 10.1769L14.4194 9.11623ZM12.2981 9.11623L6.65382 14.7605C6.2633 15.151 5.63013 15.151 5.23961 14.7605C4.84909 14.37 4.84909 13.7368 5.23961 13.3463L10.8839 7.70202L12.2981 9.11623Z" fill="#4A4A4A"/>
</svg>

<svg viewBox="0 0 20 20" xmlns="http://www.w3.org/2000/svg"><path fill-rule="evenodd" d="m14.42 9.116 1.401-1.401a2.5 2.5 0 0 0-3.535-3.536l-.743.743-.007.007-.652.652-1.06-1.06a.75.75 0 1 0-1.061 1.06l1.06 1.06-5.644 5.645a2.5 2.5 0 1 0 3.535 3.535l5.645-5.644 1.06 1.06a.75.75 0 0 0 1.061-1.06l-1.06-1.06Zm-2.122 0-5.644 5.645a1 1 0 0 1-1.414-1.415l5.644-5.644 1.414 1.414Z" fill="#5C5F62"/></svg>
